polaris-icons/icons/new-icons/ProductReferenceMinor.svg

<svg width="20" height="20" viewBox="0 0 20 20" fill="none" xmlns="http://www.w3.org/2000/svg">
<path d="M8.57473 4.64885C9.28162 3.91477 10.2568 3.5 11.2759 3.5H13.25C15.0449 3.5 16.5 4.95507 16.5 6.75V9.12148C16.5 9.88665 16.1886 10.6189 15.6374 11.1496C15.3391 11.4369 14.8643 11.428 14.577 11.1296C14.2896 10.8312 14.2986 10.3565 14.597 10.0691C14.8545 9.82114 15 9.47901 15 9.12148V6.75C15 5.7835 14.2165 5 13.25 5H11.2759C10.6645 5 10.0793 5.24886 9.65521 5.68931L5.4016 10.1065C4.92912 10.5972 4.93646 11.3758 5.41812 11.8575L8.31603 14.7554C8.70135 15.1407 9.32425 15.1466 9.71678 14.7686L10.1673 14.3348C10.4656 14.0474 10.9404 14.0564 11.2277 14.3548C11.5151 14.6531 11.5061 15.1279 11.2077 15.4152L10.7572 15.8491C9.77593 16.794 8.21868 16.7793 7.25537 15.816L4.35746 12.9181C3.29782 11.8585 3.28166 10.1455 4.32112 9.06605L8.57473 4.64885Z" fill="#4A4A4A"/>
<path d="M14 7C14 7.55228 13.5523 8 13 8C12.4477 8 12 7.55228 12 7C12 6.44772 12.4477 6 13 6C13.5523 6 14 6.44772 14 7Z" fill="#4A4A4A"/>
<path d="M16.7803 15.7195C17.0732 16.0124 17.0732 16.4873 16.7803 16.7802C16.4874 17.0731 16.0125 17.073 15.7197 16.7801L13.5 14.5604L13.5 15.75C13.5 16.1642 13.1642 16.5 12.75 16.5C12.3358 16.5 12 16.1642 12 15.75L12.0001 12.7496C12.0001 12.5507 12.0791 12.3599 12.2198 12.2193C12.3604 12.0786 12.5512 11.9996 12.7501 11.9996L15.7501 11.9999C16.1643 11.9999 16.5001 12.3357 16.5 12.7499C16.5 13.1641 16.1642 13.4999 15.75 13.4999L14.5608 13.4998L16.7803 15.7195Z" fill="#4A4A4A"/>
</svg>

<svg viewBox="0 0 20 20" xmlns="http://www.w3.org/2000/svg"><path d="M8.575 4.649a3.75 3.75 0 0 1 2.7-1.149h1.975a3.25 3.25 0 0 1 3.25 3.25v2.371c0 .766-.311 1.498-.863 2.029a.75.75 0 1 1-1.04-1.08c.258-.249.403-.591.403-.949v-2.371a1.75 1.75 0 0 0-1.75-1.75h-1.974a2.25 2.25 0 0 0-1.62.69l-4.254 4.417a1.25 1.25 0 0 0 .016 1.75l2.898 2.898a1 1 0 0 0 1.4.014l.451-.434a.75.75 0 1 1 1.04 1.08l-.45.434a2.5 2.5 0 0 1-3.502-.033l-2.898-2.898a2.75 2.75 0 0 1-.036-3.852l4.254-4.417Z" fill="#5C5F62"/><path d="M14 7a1 1 0 1 1-2 0 1 1 0 0 1 2 0Z" fill="#5C5F62"/><path d="M16.78 15.72a.75.75 0 0 1-1.06 1.06l-2.22-2.22v1.19a.75.75 0 0 1-1.5 0v-3a.75.75 0 0 1 .75-.75h3a.75.75 0 1 1 0 1.5h-1.19l2.22 2.22Z" fill="#5C5F62"/></svg>
